(Exported by FreeCAD)
(Post Processor: grbl_post)
(Output Time:2018-10-18 20:20:05.702000)
(begin preamble)
G17 G90
G21
(begin operation: fresa)
(Path: fresa)
(fresa)
(begin toolchange)
; M6 T1.0
M3 S1000.0000
(finish operation: fresa)
(begin operation: Profile_Faces)
(Path: Profile_Faces)
(Profile_Faces)
(Compensated Tool Path. Diameter: 2.0)
G0 Z8.3000
G0 X41.5000 Y37.4985
G0 Z6.3000
G1 X41.5000 Y37.4985 Z2.8000 F300.00
G1 X12.5000 Y37.4985 Z2.8000 F300.00
G1 X12.5000 Y35.4939 Z2.8000 F300.00
G1 X41.5000 Y35.4939 Z2.8000 F300.00
G1 X41.5000 Y37.4985 Z2.8000 F300.00
G1 X41.5000 Y37.4985 Z2.3000 F300.00
G1 X12.5000 Y37.4985 Z2.3000 F300.00
G1 X12.5000 Y35.4939 Z2.3000 F300.00
G1 X41.5000 Y35.4939 Z2.3000 F300.00
G1 X41.5000 Y37.4985 Z2.3000 F300.00
G1 X41.5000 Y37.4985 Z1.8000 F300.00
G1 X12.5000 Y37.4985 Z1.8000 F300.00
G1 X12.5000 Y35.4939 Z1.8000 F300.00
G1 X41.5000 Y35.4939 Z1.8000 F300.00
G1 X41.5000 Y37.4985 Z1.8000 F300.00
G1 X41.5000 Y37.4985 Z1.3000 F300.00
G1 X12.5000 Y37.4985 Z1.3000 F300.00
G1 X12.5000 Y35.4939 Z1.3000 F300.00
G1 X41.5000 Y35.4939 Z1.3000 F300.00
G1 X41.5000 Y37.4985 Z1.3000 F300.00
G1 X41.5000 Y37.4985 Z0.8000 F300.00
G1 X12.5000 Y37.4985 Z0.8000 F300.00
G1 X12.5000 Y35.4939 Z0.8000 F300.00
G1 X41.5000 Y35.4939 Z0.8000 F300.00
G1 X41.5000 Y37.4985 Z0.8000 F300.00
G1 X41.5000 Y37.4985 Z0.3000 F300.00
G1 X12.5000 Y37.4985 Z0.3000 F300.00
G1 X12.5000 Y35.4939 Z0.3000 F300.00
G1 X41.5000 Y35.4939 Z0.3000 F300.00
G1 X41.5000 Y37.4985 Z0.3000 F300.00
G1 X41.5000 Y37.4985 Z-0.2000 F300.00
G1 X12.5000 Y37.4985 Z-0.2000 F300.00
G1 X12.5000 Y35.4939 Z-0.2000 F300.00
G1 X41.5000 Y35.4939 Z-0.2000 F300.00
G1 X41.5000 Y37.4985 Z-0.2000 F300.00
G0 Z8.3000
G0 X91.5000 Y37.4985
G0 Z6.3000
G1 X91.5000 Y37.4985 Z2.8000 F300.00
G1 X62.5000 Y37.4985 Z2.8000 F300.00
G1 X62.5000 Y35.4939 Z2.8000 F300.00
G1 X91.5000 Y35.4939 Z2.8000 F300.00
G1 X91.5000 Y37.4985 Z2.8000 F300.00
G1 X91.5000 Y37.4985 Z2.3000 F300.00
G1 X62.5000 Y37.4985 Z2.3000 F300.00
G1 X62.5000 Y35.4939 Z2.3000 F300.00
G1 X91.5000 Y35.4939 Z2.3000 F300.00
G1 X91.5000 Y37.4985 Z2.3000 F300.00
G1 X91.5000 Y37.4985 Z1.8000 F300.00
G1 X62.5000 Y37.4985 Z1.8000 F300.00
G1 X62.5000 Y35.4939 Z1.8000 F300.00
G1 X91.5000 Y35.4939 Z1.8000 F300.00
G1 X91.5000 Y37.4985 Z1.8000 F300.00
G1 X91.5000 Y37.4985 Z1.3000 F300.00
G1 X62.5000 Y37.4985 Z1.3000 F300.00
G1 X62.5000 Y35.4939 Z1.3000 F300.00
G1 X91.5000 Y35.4939 Z1.3000 F300.00
G1 X91.5000 Y37.4985 Z1.3000 F300.00
G1 X91.5000 Y37.4985 Z0.8000 F300.00
G1 X62.5000 Y37.4985 Z0.8000 F300.00
G1 X62.5000 Y35.4939 Z0.8000 F300.00
G1 X91.5000 Y35.4939 Z0.8000 F300.00
G1 X91.5000 Y37.4985 Z0.8000 F300.00
G1 X91.5000 Y37.4985 Z0.3000 F300.00
G1 X62.5000 Y37.4985 Z0.3000 F300.00
G1 X62.5000 Y35.4939 Z0.3000 F300.00
G1 X91.5000 Y35.4939 Z0.3000 F300.00
G1 X91.5000 Y37.4985 Z0.3000 F300.00
G1 X91.5000 Y37.4985 Z-0.2000 F300.00
G1 X62.5000 Y37.4985 Z-0.2000 F300.00
G1 X62.5000 Y35.4939 Z-0.2000 F300.00
G1 X91.5000 Y35.4939 Z-0.2000 F300.00
G1 X91.5000 Y37.4985 Z-0.2000 F300.00
G0 Z8.3000
G0 X141.5000 Y37.4985
G0 Z6.3000
G1 X141.5000 Y37.4985 Z2.8000 F300.00
G1 X112.5000 Y37.4985 Z2.8000 F300.00
G1 X112.5000 Y35.4939 Z2.8000 F300.00
G1 X141.5000 Y35.4939 Z2.8000 F300.00
G1 X141.5000 Y37.4985 Z2.8000 F300.00
G1 X141.5000 Y37.4985 Z2.3000 F300.00
G1 X112.5000 Y37.4985 Z2.3000 F300.00
G1 X112.5000 Y35.4939 Z2.3000 F300.00
G1 X141.5000 Y35.4939 Z2.3000 F300.00
G1 X141.5000 Y37.4985 Z2.3000 F300.00
G1 X141.5000 Y37.4985 Z1.8000 F300.00
G1 X112.5000 Y37.4985 Z1.8000 F300.00
G1 X112.5000 Y35.4939 Z1.8000 F300.00
G1 X141.5000 Y35.4939 Z1.8000 F300.00
G1 X141.5000 Y37.4985 Z1.8000 F300.00
G1 X141.5000 Y37.4985 Z1.3000 F300.00
G1 X112.5000 Y37.4985 Z1.3000 F300.00
G1 X112.5000 Y35.4939 Z1.3000 F300.00
G1 X141.5000 Y35.4939 Z1.3000 F300.00
G1 X141.5000 Y37.4985 Z1.3000 F300.00
G1 X141.5000 Y37.4985 Z0.8000 F300.00
G1 X112.5000 Y37.4985 Z0.8000 F300.00
G1 X112.5000 Y35.4939 Z0.8000 F300.00
G1 X141.5000 Y35.4939 Z0.8000 F300.00
G1 X141.5000 Y37.4985 Z0.8000 F300.00
G1 X141.5000 Y37.4985 Z0.3000 F300.00
G1 X112.5000 Y37.4985 Z0.3000 F300.00
G1 X112.5000 Y35.4939 Z0.3000 F300.00
G1 X141.5000 Y35.4939 Z0.3000 F300.00
G1 X141.5000 Y37.4985 Z0.3000 F300.00
G1 X141.5000 Y37.4985 Z-0.2000 F300.00
G1 X112.5000 Y37.4985 Z-0.2000 F300.00
G1 X112.5000 Y35.4939 Z-0.2000 F300.00
G1 X141.5000 Y35.4939 Z-0.2000 F300.00
G1 X141.5000 Y37.4985 Z-0.2000 F300.00
G0 Z8.3000
G0 X152.7071 Y48.7071
G0 Z6.3000
G1 X152.7071 Y48.7071 Z2.8000 F300.00
G2 X153.0000 Y48.0000 Z2.8000 I-0.7071 J-0.7071 F300.00
G1 X153.0000 Y3.0000 Z2.8000 F300.00
G2 X152.0000 Y2.0000 Z2.8000 I-1.0000 J0.0000 F300.00
G1 X2.0000 Y2.0000 Z2.8000 F300.00
G2 X1.0000 Y3.0000 Z2.8000 I0.0000 J1.0000 F300.00
G1 X1.0000 Y48.0000 Z2.8000 F300.00
G2 X2.0000 Y49.0000 Z2.8000 I1.0000 J-0.0000 F300.00
G1 X152.0000 Y49.0000 Z2.8000 F300.00
G2 X152.7071 Y48.7071 Z2.8000 I-0.0000 J-1.0000 F300.00
G1 X152.7071 Y48.7071 Z2.3000 F300.00
G2 X153.0000 Y48.0000 Z2.3000 I-0.7071 J-0.7071 F300.00
G1 X153.0000 Y3.0000 Z2.3000 F300.00
G2 X152.0000 Y2.0000 Z2.3000 I-1.0000 J0.0000 F300.00
G1 X2.0000 Y2.0000 Z2.3000 F300.00
G2 X1.0000 Y3.0000 Z2.3000 I0.0000 J1.0000 F300.00
G1 X1.0000 Y48.0000 Z2.3000 F300.00
G2 X2.0000 Y49.0000 Z2.3000 I1.0000 J-0.0000 F300.00
G1 X152.0000 Y49.0000 Z2.3000 F300.00
G2 X152.7071 Y48.7071 Z2.3000 I-0.0000 J-1.0000 F300.00
G1 X152.7071 Y48.7071 Z1.8000 F300.00
G2 X153.0000 Y48.0000 Z1.8000 I-0.7071 J-0.7071 F300.00
G1 X153.0000 Y3.0000 Z1.8000 F300.00
G2 X152.0000 Y2.0000 Z1.8000 I-1.0000 J0.0000 F300.00
G1 X2.0000 Y2.0000 Z1.8000 F300.00
G2 X1.0000 Y3.0000 Z1.8000 I0.0000 J1.0000 F300.00
G1 X1.0000 Y48.0000 Z1.8000 F300.00
G2 X2.0000 Y49.0000 Z1.8000 I1.0000 J-0.0000 F300.00
G1 X152.0000 Y49.0000 Z1.8000 F300.00
G2 X152.7071 Y48.7071 Z1.8000 I-0.0000 J-1.0000 F300.00
G1 X152.7071 Y48.7071 Z1.3000 F300.00
G2 X153.0000 Y48.0000 Z1.3000 I-0.7071 J-0.7071 F300.00
G1 X153.0000 Y3.0000 Z1.3000 F300.00
G2 X152.0000 Y2.0000 Z1.3000 I-1.0000 J0.0000 F300.00
G1 X2.0000 Y2.0000 Z1.3000 F300.00
G2 X1.0000 Y3.0000 Z1.3000 I0.0000 J1.0000 F300.00
G1 X1.0000 Y48.0000 Z1.3000 F300.00
G2 X2.0000 Y49.0000 Z1.3000 I1.0000 J-0.0000 F300.00
G1 X152.0000 Y49.0000 Z1.3000 F300.00
G2 X152.7071 Y48.7071 Z1.3000 I-0.0000 J-1.0000 F300.00
G1 X152.7071 Y48.7071 Z0.8000 F300.00
G2 X153.0000 Y48.0000 Z0.8000 I-0.7071 J-0.7071 F300.00
G1 X153.0000 Y3.0000 Z0.8000 F300.00
G2 X152.0000 Y2.0000 Z0.8000 I-1.0000 J0.0000 F300.00
G1 X2.0000 Y2.0000 Z0.8000 F300.00
G2 X1.0000 Y3.0000 Z0.8000 I0.0000 J1.0000 F300.00
G1 X1.0000 Y48.0000 Z0.8000 F300.00
G2 X2.0000 Y49.0000 Z0.8000 I1.0000 J-0.0000 F300.00
G1 X152.0000 Y49.0000 Z0.8000 F300.00
G2 X152.7071 Y48.7071 Z0.8000 I-0.0000 J-1.0000 F300.00
G1 X152.7071 Y48.7071 Z0.3000 F300.00
G2 X153.0000 Y48.0000 Z0.3000 I-0.7071 J-0.7071 F300.00
G1 X153.0000 Y3.0000 Z0.3000 F300.00
G2 X152.0000 Y2.0000 Z0.3000 I-1.0000 J0.0000 F300.00
G1 X2.0000 Y2.0000 Z0.3000 F300.00
G2 X1.0000 Y3.0000 Z0.3000 I0.0000 J1.0000 F300.00
G1 X1.0000 Y48.0000 Z0.3000 F300.00
G2 X2.0000 Y49.0000 Z0.3000 I1.0000 J-0.0000 F300.00
G1 X152.0000 Y49.0000 Z0.3000 F300.00
G2 X152.7071 Y48.7071 Z0.3000 I-0.0000 J-1.0000 F300.00
G1 X152.7071 Y48.7071 Z-0.2000 F300.00
G2 X153.0000 Y48.0000 Z-0.2000 I-0.7071 J-0.7071 F300.00
G1 X153.0000 Y3.0000 Z-0.2000 F300.00
G2 X152.0000 Y2.0000 Z-0.2000 I-1.0000 J0.0000 F300.00
G1 X2.0000 Y2.0000 Z-0.2000 F300.00
G2 X1.0000 Y3.0000 Z-0.2000 I0.0000 J1.0000 F300.00
G1 X1.0000 Y48.0000 Z-0.2000 F300.00
G2 X2.0000 Y49.0000 Z-0.2000 I1.0000 J-0.0000 F300.00
G1 X152.0000 Y49.0000 Z-0.2000 F300.00
G2 X152.7071 Y48.7071 Z-0.2000 I-0.0000 J-1.0000 F300.00
G0 Z8.3000
(finish operation: Profile_Faces)
(begin postamble)
M5
G17 G90
; M2
