(Exported by FreeCAD)
(Post Processor: grbl_post)
(Output Time:2018-10-18 20:12:48.005000)
(begin preamble)
G17 G90
G21
(begin operation: fresa)
(Path: fresa)
(fresa)
(begin toolchange)
; M6 T1.0
M3 S1000.0000
(finish operation: fresa)
(begin operation: Profile_Faces)
(Path: Profile_Faces)
(Profile_Faces)
(Compensated Tool Path. Diameter: 2.0)
G0 Z8.3000
G0 X195.5000 Y38.4998
G0 Z6.3000
G1 X195.5000 Y38.4998 Z2.8000 F300.00
G1 X166.5000 Y38.4998 Z2.8000 F300.00
G1 X166.5000 Y36.4998 Z2.8000 F300.00
G1 X195.5000 Y36.4998 Z2.8000 F300.00
G1 X195.5000 Y38.4998 Z2.8000 F300.00
G1 X195.5000 Y38.4998 Z2.3000 F300.00
G1 X166.5000 Y38.4998 Z2.3000 F300.00
G1 X166.5000 Y36.4998 Z2.3000 F300.00
G1 X195.5000 Y36.4998 Z2.3000 F300.00
G1 X195.5000 Y38.4998 Z2.3000 F300.00
G1 X195.5000 Y38.4998 Z1.8000 F300.00
G1 X166.5000 Y38.4998 Z1.8000 F300.00
G1 X166.5000 Y36.4998 Z1.8000 F300.00
G1 X195.5000 Y36.4998 Z1.8000 F300.00
G1 X195.5000 Y38.4998 Z1.8000 F300.00
G1 X195.5000 Y38.4998 Z1.3000 F300.00
G1 X166.5000 Y38.4998 Z1.3000 F300.00
G1 X166.5000 Y36.4998 Z1.3000 F300.00
G1 X195.5000 Y36.4998 Z1.3000 F300.00
G1 X195.5000 Y38.4998 Z1.3000 F300.00
G1 X195.5000 Y38.4998 Z0.8000 F300.00
G1 X166.5000 Y38.4998 Z0.8000 F300.00
G1 X166.5000 Y36.4998 Z0.8000 F300.00
G1 X195.5000 Y36.4998 Z0.8000 F300.00
G1 X195.5000 Y38.4998 Z0.8000 F300.00
G1 X195.5000 Y38.4998 Z0.3000 F300.00
G1 X166.5000 Y38.4998 Z0.3000 F300.00
G1 X166.5000 Y36.4998 Z0.3000 F300.00
G1 X195.5000 Y36.4998 Z0.3000 F300.00
G1 X195.5000 Y38.4998 Z0.3000 F300.00
G1 X195.5000 Y38.4998 Z-0.2000 F300.00
G1 X166.5000 Y38.4998 Z-0.2000 F300.00
G1 X166.5000 Y36.4998 Z-0.2000 F300.00
G1 X195.5000 Y36.4998 Z-0.2000 F300.00
G1 X195.5000 Y38.4998 Z-0.2000 F300.00
G0 Z8.3000
G0 X125.5000 Y38.4999
G0 Z6.3000
G1 X125.5000 Y38.4999 Z2.8000 F300.00
G1 X96.5000 Y38.4999 Z2.8000 F300.00
G1 X96.5000 Y36.4999 Z2.8000 F300.00
G1 X125.5000 Y36.4999 Z2.8000 F300.00
G1 X125.5000 Y38.4999 Z2.8000 F300.00
G1 X125.5000 Y38.4999 Z2.3000 F300.00
G1 X96.5000 Y38.4999 Z2.3000 F300.00
G1 X96.5000 Y36.4999 Z2.3000 F300.00
G1 X125.5000 Y36.4999 Z2.3000 F300.00
G1 X125.5000 Y38.4999 Z2.3000 F300.00
G1 X125.5000 Y38.4999 Z1.8000 F300.00
G1 X96.5000 Y38.4999 Z1.8000 F300.00
G1 X96.5000 Y36.4999 Z1.8000 F300.00
G1 X125.5000 Y36.4999 Z1.8000 F300.00
G1 X125.5000 Y38.4999 Z1.8000 F300.00
G1 X125.5000 Y38.4999 Z1.3000 F300.00
G1 X96.5000 Y38.4999 Z1.3000 F300.00
G1 X96.5000 Y36.4999 Z1.3000 F300.00
G1 X125.5000 Y36.4999 Z1.3000 F300.00
G1 X125.5000 Y38.4999 Z1.3000 F300.00
G1 X125.5000 Y38.4999 Z0.8000 F300.00
G1 X96.5000 Y38.4999 Z0.8000 F300.00
G1 X96.5000 Y36.4999 Z0.8000 F300.00
G1 X125.5000 Y36.4999 Z0.8000 F300.00
G1 X125.5000 Y38.4999 Z0.8000 F300.00
G1 X125.5000 Y38.4999 Z0.3000 F300.00
G1 X96.5000 Y38.4999 Z0.3000 F300.00
G1 X96.5000 Y36.4999 Z0.3000 F300.00
G1 X125.5000 Y36.4999 Z0.3000 F300.00
G1 X125.5000 Y38.4999 Z0.3000 F300.00
G1 X125.5000 Y38.4999 Z-0.2000 F300.00
G1 X96.5000 Y38.4999 Z-0.2000 F300.00
G1 X96.5000 Y36.4999 Z-0.2000 F300.00
G1 X125.5000 Y36.4999 Z-0.2000 F300.00
G1 X125.5000 Y38.4999 Z-0.2000 F300.00
G0 Z8.3000
G0 X55.5000 Y38.4999
G0 Z6.3000
G1 X55.5000 Y38.4999 Z2.8000 F300.00
G1 X26.5000 Y38.5000 Z2.8000 F300.00
G1 X26.5000 Y36.5000 Z2.8000 F300.00
G1 X55.5000 Y36.4999 Z2.8000 F300.00
G1 X55.5000 Y38.4999 Z2.8000 F300.00
G1 X55.5000 Y38.4999 Z2.3000 F300.00
G1 X26.5000 Y38.5000 Z2.3000 F300.00
G1 X26.5000 Y36.5000 Z2.3000 F300.00
G1 X55.5000 Y36.4999 Z2.3000 F300.00
G1 X55.5000 Y38.4999 Z2.3000 F300.00
G1 X55.5000 Y38.4999 Z1.8000 F300.00
G1 X26.5000 Y38.5000 Z1.8000 F300.00
G1 X26.5000 Y36.5000 Z1.8000 F300.00
G1 X55.5000 Y36.4999 Z1.8000 F300.00
G1 X55.5000 Y38.4999 Z1.8000 F300.00
G1 X55.5000 Y38.4999 Z1.3000 F300.00
G1 X26.5000 Y38.5000 Z1.3000 F300.00
G1 X26.5000 Y36.5000 Z1.3000 F300.00
G1 X55.5000 Y36.4999 Z1.3000 F300.00
G1 X55.5000 Y38.4999 Z1.3000 F300.00
G1 X55.5000 Y38.4999 Z0.8000 F300.00
G1 X26.5000 Y38.5000 Z0.8000 F300.00
G1 X26.5000 Y36.5000 Z0.8000 F300.00
G1 X55.5000 Y36.4999 Z0.8000 F300.00
G1 X55.5000 Y38.4999 Z0.8000 F300.00
G1 X55.5000 Y38.4999 Z0.3000 F300.00
G1 X26.5000 Y38.5000 Z0.3000 F300.00
G1 X26.5000 Y36.5000 Z0.3000 F300.00
G1 X55.5000 Y36.4999 Z0.3000 F300.00
G1 X55.5000 Y38.4999 Z0.3000 F300.00
G1 X55.5000 Y38.4999 Z-0.2000 F300.00
G1 X26.5000 Y38.5000 Z-0.2000 F300.00
G1 X26.5000 Y36.5000 Z-0.2000 F300.00
G1 X55.5000 Y36.4999 Z-0.2000 F300.00
G1 X55.5000 Y38.4999 Z-0.2000 F300.00
G0 Z8.3000
G0 X218.3022 Y74.3299
G0 Z6.3000
G1 X218.3022 Y74.3299 Z2.8000 F300.00
G2 X218.3267 Y74.1527 Z2.8000 I-0.9744 J-0.2248 F300.00
G1 X221.6607 Y4.2321 Z2.8000 F300.00
G2 X220.6625 Y3.1845 Z2.8000 I-0.9989 J-0.0476 F300.00
G1 X7.6677 Y3.0397 Z2.8000 F300.00
G2 X6.6681 Y3.9921 Z2.8000 I-0.0007 J1.0000 F300.00
G1 X3.8104 Y63.9240 Z2.8000 F300.00
G2 X4.7617 Y64.9705 Z2.8000 I0.9989 J0.0476 F300.00
G1 X217.2802 Y75.1039 Z2.8000 F300.00
G2 X218.3022 Y74.3299 Z2.8000 I0.0476 J-0.9989 F300.00
G1 X218.3022 Y74.3299 Z2.3000 F300.00
G2 X218.3267 Y74.1527 Z2.3000 I-0.9744 J-0.2248 F300.00
G1 X221.6607 Y4.2321 Z2.3000 F300.00
G2 X220.6625 Y3.1845 Z2.3000 I-0.9989 J-0.0476 F300.00
G1 X7.6677 Y3.0397 Z2.3000 F300.00
G2 X6.6681 Y3.9921 Z2.3000 I-0.0007 J1.0000 F300.00
G1 X3.8104 Y63.9240 Z2.3000 F300.00
G2 X4.7617 Y64.9705 Z2.3000 I0.9989 J0.0476 F300.00
G1 X217.2802 Y75.1039 Z2.3000 F300.00
G2 X218.3022 Y74.3299 Z2.3000 I0.0476 J-0.9989 F300.00
G1 X218.3022 Y74.3299 Z1.8000 F300.00
G2 X218.3267 Y74.1527 Z1.8000 I-0.9744 J-0.2248 F300.00
G1 X221.6607 Y4.2321 Z1.8000 F300.00
G2 X220.6625 Y3.1845 Z1.8000 I-0.9989 J-0.0476 F300.00
G1 X7.6677 Y3.0397 Z1.8000 F300.00
G2 X6.6681 Y3.9921 Z1.8000 I-0.0007 J1.0000 F300.00
G1 X3.8104 Y63.9240 Z1.8000 F300.00
G2 X4.7617 Y64.9705 Z1.8000 I0.9989 J0.0476 F300.00
G1 X217.2802 Y75.1039 Z1.8000 F300.00
G2 X218.3022 Y74.3299 Z1.8000 I0.0476 J-0.9989 F300.00
G1 X218.3022 Y74.3299 Z1.3000 F300.00
G2 X218.3267 Y74.1527 Z1.3000 I-0.9744 J-0.2248 F300.00
G1 X221.6607 Y4.2321 Z1.3000 F300.00
G2 X220.6625 Y3.1845 Z1.3000 I-0.9989 J-0.0476 F300.00
G1 X7.6677 Y3.0397 Z1.3000 F300.00
G2 X6.6681 Y3.9921 Z1.3000 I-0.0007 J1.0000 F300.00
G1 X3.8104 Y63.9240 Z1.3000 F300.00
G2 X4.7617 Y64.9705 Z1.3000 I0.9989 J0.0476 F300.00
G1 X217.2802 Y75.1039 Z1.3000 F300.00
G2 X218.3022 Y74.3299 Z1.3000 I0.0476 J-0.9989 F300.00
G1 X218.3022 Y74.3299 Z0.8000 F300.00
G2 X218.3267 Y74.1527 Z0.8000 I-0.9744 J-0.2248 F300.00
G1 X221.6607 Y4.2321 Z0.8000 F300.00
G2 X220.6625 Y3.1845 Z0.8000 I-0.9989 J-0.0476 F300.00
G1 X7.6677 Y3.0397 Z0.8000 F300.00
G2 X6.6681 Y3.9921 Z0.8000 I-0.0007 J1.0000 F300.00
G1 X3.8104 Y63.9240 Z0.8000 F300.00
G2 X4.7617 Y64.9705 Z0.8000 I0.9989 J0.0476 F300.00
G1 X217.2802 Y75.1039 Z0.8000 F300.00
G2 X218.3022 Y74.3299 Z0.8000 I0.0476 J-0.9989 F300.00
G1 X218.3022 Y74.3299 Z0.3000 F300.00
G2 X218.3267 Y74.1527 Z0.3000 I-0.9744 J-0.2248 F300.00
G1 X221.6607 Y4.2321 Z0.3000 F300.00
G2 X220.6625 Y3.1845 Z0.3000 I-0.9989 J-0.0476 F300.00
G1 X7.6677 Y3.0397 Z0.3000 F300.00
G2 X6.6681 Y3.9921 Z0.3000 I-0.0007 J1.0000 F300.00
G1 X3.8104 Y63.9240 Z0.3000 F300.00
G2 X4.7617 Y64.9705 Z0.3000 I0.9989 J0.0476 F300.00
G1 X217.2802 Y75.1039 Z0.3000 F300.00
G2 X218.3022 Y74.3299 Z0.3000 I0.0476 J-0.9989 F300.00
G1 X218.3022 Y74.3299 Z-0.2000 F300.00
G2 X218.3267 Y74.1527 Z-0.2000 I-0.9744 J-0.2248 F300.00
G1 X221.6607 Y4.2321 Z-0.2000 F300.00
G2 X220.6625 Y3.1845 Z-0.2000 I-0.9989 J-0.0476 F300.00
G1 X7.6677 Y3.0397 Z-0.2000 F300.00
G2 X6.6681 Y3.9921 Z-0.2000 I-0.0007 J1.0000 F300.00
G1 X3.8104 Y63.9240 Z-0.2000 F300.00
G2 X4.7617 Y64.9705 Z-0.2000 I0.9989 J0.0476 F300.00
G1 X217.2802 Y75.1039 Z-0.2000 F300.00
G2 X218.3022 Y74.3299 Z-0.2000 I0.0476 J-0.9989 F300.00
G0 Z8.3000
(finish operation: Profile_Faces)
(begin postamble)
M5
G17 G90
; M2
