(Exported by FreeCAD)
(Post Processor: grbl_post)
(Output Time:2018-10-18 20:16:50.504000)
(begin preamble)
G17 G90
G21
(begin operation: fresa)
(Path: fresa)
(fresa)
(begin toolchange)
; M6 T1.0
M3 S1000.0000
(finish operation: fresa)
(begin operation: Profile_Faces)
(Path: Profile_Faces)
(Profile_Faces)
(Compensated Tool Path. Diameter: 2.0)
G0 Z8.3000
G0 X197.5002 Y46.5068
G0 Z6.3000
G1 X197.5002 Y46.5068 Z2.8000 F300.00
G1 X168.5002 Y46.5068 Z2.8000 F300.00
G1 X168.5002 Y44.5068 Z2.8000 F300.00
G1 X197.5002 Y44.5068 Z2.8000 F300.00
G1 X197.5002 Y46.5068 Z2.8000 F300.00
G1 X197.5002 Y46.5068 Z2.3000 F300.00
G1 X168.5002 Y46.5068 Z2.3000 F300.00
G1 X168.5002 Y44.5068 Z2.3000 F300.00
G1 X197.5002 Y44.5068 Z2.3000 F300.00
G1 X197.5002 Y46.5068 Z2.3000 F300.00
G1 X197.5002 Y46.5068 Z1.8000 F300.00
G1 X168.5002 Y46.5068 Z1.8000 F300.00
G1 X168.5002 Y44.5068 Z1.8000 F300.00
G1 X197.5002 Y44.5068 Z1.8000 F300.00
G1 X197.5002 Y46.5068 Z1.8000 F300.00
G1 X197.5002 Y46.5068 Z1.3000 F300.00
G1 X168.5002 Y46.5068 Z1.3000 F300.00
G1 X168.5002 Y44.5068 Z1.3000 F300.00
G1 X197.5002 Y44.5068 Z1.3000 F300.00
G1 X197.5002 Y46.5068 Z1.3000 F300.00
G1 X197.5002 Y46.5068 Z0.8000 F300.00
G1 X168.5002 Y46.5068 Z0.8000 F300.00
G1 X168.5002 Y44.5068 Z0.8000 F300.00
G1 X197.5002 Y44.5068 Z0.8000 F300.00
G1 X197.5002 Y46.5068 Z0.8000 F300.00
G1 X197.5002 Y46.5068 Z0.3000 F300.00
G1 X168.5002 Y46.5068 Z0.3000 F300.00
G1 X168.5002 Y44.5068 Z0.3000 F300.00
G1 X197.5002 Y44.5068 Z0.3000 F300.00
G1 X197.5002 Y46.5068 Z0.3000 F300.00
G1 X197.5002 Y46.5068 Z-0.2000 F300.00
G1 X168.5002 Y46.5068 Z-0.2000 F300.00
G1 X168.5002 Y44.5068 Z-0.2000 F300.00
G1 X197.5002 Y44.5068 Z-0.2000 F300.00
G1 X197.5002 Y46.5068 Z-0.2000 F300.00
G0 Z8.3000
G0 X127.5002 Y46.5067
G0 Z6.3000
G1 X127.5002 Y46.5067 Z2.8000 F300.00
G1 X98.5002 Y46.5067 Z2.8000 F300.00
G1 X98.5002 Y44.5067 Z2.8000 F300.00
G1 X127.5002 Y44.5067 Z2.8000 F300.00
G1 X127.5002 Y46.5067 Z2.8000 F300.00
G1 X127.5002 Y46.5067 Z2.3000 F300.00
G1 X98.5002 Y46.5067 Z2.3000 F300.00
G1 X98.5002 Y44.5067 Z2.3000 F300.00
G1 X127.5002 Y44.5067 Z2.3000 F300.00
G1 X127.5002 Y46.5067 Z2.3000 F300.00
G1 X127.5002 Y46.5067 Z1.8000 F300.00
G1 X98.5002 Y46.5067 Z1.8000 F300.00
G1 X98.5002 Y44.5067 Z1.8000 F300.00
G1 X127.5002 Y44.5067 Z1.8000 F300.00
G1 X127.5002 Y46.5067 Z1.8000 F300.00
G1 X127.5002 Y46.5067 Z1.3000 F300.00
G1 X98.5002 Y46.5067 Z1.3000 F300.00
G1 X98.5002 Y44.5067 Z1.3000 F300.00
G1 X127.5002 Y44.5067 Z1.3000 F300.00
G1 X127.5002 Y46.5067 Z1.3000 F300.00
G1 X127.5002 Y46.5067 Z0.8000 F300.00
G1 X98.5002 Y46.5067 Z0.8000 F300.00
G1 X98.5002 Y44.5067 Z0.8000 F300.00
G1 X127.5002 Y44.5067 Z0.8000 F300.00
G1 X127.5002 Y46.5067 Z0.8000 F300.00
G1 X127.5002 Y46.5067 Z0.3000 F300.00
G1 X98.5002 Y46.5067 Z0.3000 F300.00
G1 X98.5002 Y44.5067 Z0.3000 F300.00
G1 X127.5002 Y44.5067 Z0.3000 F300.00
G1 X127.5002 Y46.5067 Z0.3000 F300.00
G1 X127.5002 Y46.5067 Z-0.2000 F300.00
G1 X98.5002 Y46.5067 Z-0.2000 F300.00
G1 X98.5002 Y44.5067 Z-0.2000 F300.00
G1 X127.5002 Y44.5067 Z-0.2000 F300.00
G1 X127.5002 Y46.5067 Z-0.2000 F300.00
G0 Z8.3000
G0 X57.5002 Y46.5066
G0 Z6.3000
G1 X57.5002 Y46.5066 Z2.8000 F300.00
G1 X28.5002 Y46.5066 Z2.8000 F300.00
G1 X28.5002 Y44.5066 Z2.8000 F300.00
G1 X57.5002 Y44.5066 Z2.8000 F300.00
G1 X57.5002 Y46.5066 Z2.8000 F300.00
G1 X57.5002 Y46.5066 Z2.3000 F300.00
G1 X28.5002 Y46.5066 Z2.3000 F300.00
G1 X28.5002 Y44.5066 Z2.3000 F300.00
G1 X57.5002 Y44.5066 Z2.3000 F300.00
G1 X57.5002 Y46.5066 Z2.3000 F300.00
G1 X57.5002 Y46.5066 Z1.8000 F300.00
G1 X28.5002 Y46.5066 Z1.8000 F300.00
G1 X28.5002 Y44.5066 Z1.8000 F300.00
G1 X57.5002 Y44.5066 Z1.8000 F300.00
G1 X57.5002 Y46.5066 Z1.8000 F300.00
G1 X57.5002 Y46.5066 Z1.3000 F300.00
G1 X28.5002 Y46.5066 Z1.3000 F300.00
G1 X28.5002 Y44.5066 Z1.3000 F300.00
G1 X57.5002 Y44.5066 Z1.3000 F300.00
G1 X57.5002 Y46.5066 Z1.3000 F300.00
G1 X57.5002 Y46.5066 Z0.8000 F300.00
G1 X28.5002 Y46.5066 Z0.8000 F300.00
G1 X28.5002 Y44.5066 Z0.8000 F300.00
G1 X57.5002 Y44.5066 Z0.8000 F300.00
G1 X57.5002 Y46.5066 Z0.8000 F300.00
G1 X57.5002 Y46.5066 Z0.3000 F300.00
G1 X28.5002 Y46.5066 Z0.3000 F300.00
G1 X28.5002 Y44.5066 Z0.3000 F300.00
G1 X57.5002 Y44.5066 Z0.3000 F300.00
G1 X57.5002 Y46.5066 Z0.3000 F300.00
G1 X57.5002 Y46.5066 Z-0.2000 F300.00
G1 X28.5002 Y46.5066 Z-0.2000 F300.00
G1 X28.5002 Y44.5066 Z-0.2000 F300.00
G1 X57.5002 Y44.5066 Z-0.2000 F300.00
G1 X57.5002 Y46.5066 Z-0.2000 F300.00
G0 Z8.3000
G0 X223.3199 Y79.5752
G0 Z6.3000
G1 X223.3199 Y79.5752 Z2.8000 F300.00
G2 X223.6608 Y78.7745 Z2.8000 I-0.6579 J-0.7531 F300.00
G1 X220.3269 Y8.8539 Z2.8000 F300.00
G2 X219.2804 Y7.9027 Z2.8000 I-0.9989 J0.0476 F300.00
G1 X6.7618 Y18.0361 Z2.8000 F300.00
G2 X5.8106 Y19.0826 Z2.8000 I0.0476 J0.9989 F300.00
G1 X8.6683 Y79.0145 Z2.8000 F300.00
G2 X9.6678 Y79.9669 Z2.8000 I0.9989 J-0.0476 F300.00
G1 X222.6627 Y79.8221 Z2.8000 F300.00
G2 X223.3199 Y79.5752 Z2.8000 I-0.0007 J-1.0000 F300.00
G1 X223.3199 Y79.5752 Z2.3000 F300.00
G2 X223.6608 Y78.7745 Z2.3000 I-0.6579 J-0.7531 F300.00
G1 X220.3269 Y8.8539 Z2.3000 F300.00
G2 X219.2804 Y7.9027 Z2.3000 I-0.9989 J0.0476 F300.00
G1 X6.7618 Y18.0361 Z2.3000 F300.00
G2 X5.8106 Y19.0826 Z2.3000 I0.0476 J0.9989 F300.00
G1 X8.6683 Y79.0145 Z2.3000 F300.00
G2 X9.6678 Y79.9669 Z2.3000 I0.9989 J-0.0476 F300.00
G1 X222.6627 Y79.8221 Z2.3000 F300.00
G2 X223.3199 Y79.5752 Z2.3000 I-0.0007 J-1.0000 F300.00
G1 X223.3199 Y79.5752 Z1.8000 F300.00
G2 X223.6608 Y78.7745 Z1.8000 I-0.6579 J-0.7531 F300.00
G1 X220.3269 Y8.8539 Z1.8000 F300.00
G2 X219.2804 Y7.9027 Z1.8000 I-0.9989 J0.0476 F300.00
G1 X6.7618 Y18.0361 Z1.8000 F300.00
G2 X5.8106 Y19.0826 Z1.8000 I0.0476 J0.9989 F300.00
G1 X8.6683 Y79.0145 Z1.8000 F300.00
G2 X9.6678 Y79.9669 Z1.8000 I0.9989 J-0.0476 F300.00
G1 X222.6627 Y79.8221 Z1.8000 F300.00
G2 X223.3199 Y79.5752 Z1.8000 I-0.0007 J-1.0000 F300.00
G1 X223.3199 Y79.5752 Z1.3000 F300.00
G2 X223.6608 Y78.7745 Z1.3000 I-0.6579 J-0.7531 F300.00
G1 X220.3269 Y8.8539 Z1.3000 F300.00
G2 X219.2804 Y7.9027 Z1.3000 I-0.9989 J0.0476 F300.00
G1 X6.7618 Y18.0361 Z1.3000 F300.00
G2 X5.8106 Y19.0826 Z1.3000 I0.0476 J0.9989 F300.00
G1 X8.6683 Y79.0145 Z1.3000 F300.00
G2 X9.6678 Y79.9669 Z1.3000 I0.9989 J-0.0476 F300.00
G1 X222.6627 Y79.8221 Z1.3000 F300.00
G2 X223.3199 Y79.5752 Z1.3000 I-0.0007 J-1.0000 F300.00
G1 X223.3199 Y79.5752 Z0.8000 F300.00
G2 X223.6608 Y78.7745 Z0.8000 I-0.6579 J-0.7531 F300.00
G1 X220.3269 Y8.8539 Z0.8000 F300.00
G2 X219.2804 Y7.9027 Z0.8000 I-0.9989 J0.0476 F300.00
G1 X6.7618 Y18.0361 Z0.8000 F300.00
G2 X5.8106 Y19.0826 Z0.8000 I0.0476 J0.9989 F300.00
G1 X8.6683 Y79.0145 Z0.8000 F300.00
G2 X9.6678 Y79.9669 Z0.8000 I0.9989 J-0.0476 F300.00
G1 X222.6627 Y79.8221 Z0.8000 F300.00
G2 X223.3199 Y79.5752 Z0.8000 I-0.0007 J-1.0000 F300.00
G1 X223.3199 Y79.5752 Z0.3000 F300.00
G2 X223.6608 Y78.7745 Z0.3000 I-0.6579 J-0.7531 F300.00
G1 X220.3269 Y8.8539 Z0.3000 F300.00
G2 X219.2804 Y7.9027 Z0.3000 I-0.9989 J0.0476 F300.00
G1 X6.7618 Y18.0361 Z0.3000 F300.00
G2 X5.8106 Y19.0826 Z0.3000 I0.0476 J0.9989 F300.00
G1 X8.6683 Y79.0145 Z0.3000 F300.00
G2 X9.6678 Y79.9669 Z0.3000 I0.9989 J-0.0476 F300.00
G1 X222.6627 Y79.8221 Z0.3000 F300.00
G2 X223.3199 Y79.5752 Z0.3000 I-0.0007 J-1.0000 F300.00
G1 X223.3199 Y79.5752 Z-0.2000 F300.00
G2 X223.6608 Y78.7745 Z-0.2000 I-0.6579 J-0.7531 F300.00
G1 X220.3269 Y8.8539 Z-0.2000 F300.00
G2 X219.2804 Y7.9027 Z-0.2000 I-0.9989 J0.0476 F300.00
G1 X6.7618 Y18.0361 Z-0.2000 F300.00
G2 X5.8106 Y19.0826 Z-0.2000 I0.0476 J0.9989 F300.00
G1 X8.6683 Y79.0145 Z-0.2000 F300.00
G2 X9.6678 Y79.9669 Z-0.2000 I0.9989 J-0.0476 F300.00
G1 X222.6627 Y79.8221 Z-0.2000 F300.00
G2 X223.3199 Y79.5752 Z-0.2000 I-0.0007 J-1.0000 F300.00
G0 Z8.3000
(finish operation: Profile_Faces)
(begin postamble)
M5
G17 G90
; M2
